modules/zondicons/icons/document-add.svg

<svg width="20" height="20" viewBox="0 0 20 20" xmlns="http://www.w3.org/2000/svg"><path d="M9 10H7v2h2v2h2v-2h2v-2h-2V8H9v2zm-5 8V2h8v4h4v12H4zm-2 1V0h12l4 4v16H2v-1z" fill="#000" fill-rule="evenodd"/></svg>

<?xml version="1.0" encoding="UTF-8" standalone="no"?>
<svg width="20px" height="20px" viewBox="0 0 20 20" version="1.1" xmlns="http://www.w3.org/2000/svg" xmlns:xlink="http://www.w3.org/1999/xlink">
    <!-- Generator: Sketch 3.7.2 (28276) - http://www.bohemiancoding.com/sketch -->
    <title>document-add</title>
    <desc>Created with Sketch.</desc>
    <defs></defs>
    <g id="Page-1" stroke="none" stroke-width="1" fill="none" fill-rule="evenodd">
        <g id="document-add" fill="#000000">
            <path d="M9,10 L7,10 L7,12 L9,12 L9,14 L11,14 L11,12 L13,12 L13,10 L11,10 L11,8 L9,8 L9,10 Z M4,18 L4,2 L12,2 L12,6 L16,6 L16,18 L4,18 Z M2,19 L2,0 L3,0 L12,0 L14,0 L18,4 L18,6 L18,20 L17,20 L2,20 L2,19 Z" id="Combined-Shape"></path>
        </g>
    </g>
</svg>
